X: 15268
T: Girl Who Broke My Heart, The
R: reel
M: 4/4
K: Aminor
|:ed|cAGA ED3|EAAG ABcd|efge dBAG|EAAG A2 ed|
cAGA ED3|EAAG ABcd|efge dBAG|EAAG A2||
|:E2|A2ce aecA|G2Bd gdBG|A2ce aece|dcAG EAAE|
A2ce aecA|G2Bd gdBG|ABce dBAG|EAAG A2:|

